X:1
T:Waltz
T:Waltz
T:Johannes Brahms (1833-1897) Op.39, No.10
T:by Mutopia-2017/01/22-2164
C:Johannes Brahms (1833-1897)
C:Op.39, No.10
Z:by Mutopia-2017/01/22-2164
%%score { 1 | 2 }
L:1/8
Q:1/4=160
M:3/4
K:G
V:1 treble nm="Piano" snm="Pno."
V:2 bass 
V:1
 [CE][DF][CE][DF][EG][FA] | [GB]2 [FA]2 [EG]2 | [DF][EG][FA][GB][Ac][Bd] | [ce]2 [Bd]2 [Ac]2 | %4
 [GB]d[B=f]a[Bf]d | [GB]c[Be]g[Be]c | [G^A]B[Ad]g[Ad]B | [F^G]!courtesy!=A[Fc][FA][E=G][DF] | %8
 [CE][DF][CE][DF][EG][FA] | [GB]2 [FA]2 [EG]2 | [DF][EG][FA][GB][Ac][Bd] | [ce]2 [Bd]2 [Ac]2 | %12
 [GB]d[B=f]a[Bf]d | [GB]c[Be]g[Be]c | [G^A]B[Ad]g[Ad]B | [F^G]2- [FG][F!courtesy!=A][Fc][FB] | %16
 [FB][^A^c] [FB][Ac][B^d][ce] | [^df]2 [^ce]2 [Bd]2 | [FB][^A^c][FB][Ac][B!courtesy!=d][ce] | %19
 [df]2 [^ce]2 [Bd]2 | [A!courtesy!=c][Bd][Ac][Bd][ce][df] | [eg]2 [ce]2 [Ac]2 | %22
{Bcd} [Ec]2 [DB]2 [CA]2 | [B,Gd]4 [GB]2 | [FB][^A^c][FB][Ac][B^d][ce] | [^df]2 [^ce]2 [Bd]2 | %26
 [FB][^A^c][FB][Ac][B!courtesy!=d][ce] | [df]2 [^ce]2 [Bd]2 | [A!courtesy!=c][Bd][Ac][Bd][ce][df] | %29
 [eg]2 [ce]2 [Ac]2 |{Bcd} [Ec]2 [DB]2 [CA]2 | [B,G]4 z2 |] %32
V:2
 D,,2 [D,A,]2 [D,B,]2 | D,,2 [D,C]2 [D,B,]2 | D,,2 [D,A,C]2 [D,G,B,]2 | D,,2 [D,F,A,]2 [D,D]2 | %4
 G,,2 [G,=F]2 [G,D]2 | G,,2 [G,E]2 [G,C]2 | G,,2 [G,D]2 [G,B,]2 | G,,2 [D,C]2 [D,A,]2 | %8
 D,,2 [D,A,]2 [D,B,]2 | D,,2 [D,C]2 [D,B,]2 | D,,2 [D,A,C]2 [D,G,B,]2 | D,,2 [D,F,A,]2 [D,D]2 | %12
 G,,2 [G,=F]2 [G,D]2 | G,,2 [G,E]2 [G,C]2 | G,,2 [G,D]2 [G,B,]2 | D,,2 [D,C]2 [D,A,]2 | %16
 [^D,,^D,]2 [F,B,]2 [B,,,B,,]2 | [F,,,F,,]2 [F,B,]2 [B,,,B,,]2 | [D,,D,]2 [F,B,]2 [B,,,B,,]2 | %19
 [F,,,F,,]2 [F,B,]2 [B,,,B,,]2 | [D,,D,]2 [D,C]2 [D,A,]2 | C,,2 [C,C]2 [C,E,]2 | %22
 D,,2 [D,F,]2 [D,F,]2 | [G,,,G,,]2 [D,G,]2 z2 | [_E,,_E,]2 [F,B,]2 [B,,,B,,]2 | %25
 [F,,,F,,]2 [F,B,]2 [B,,,B,,]2 | [D,,D,]2 [F,B,]2 [B,,,B,,]2 | [F,,,F,,]2 [F,B,]2 [B,,,B,,]2 | %28
 [D,,D,]2 [D,C]2 [D,A,]2 | C,,2 [C,C]2 [C,E,]2 | D,,2 [D,F,]2 [D,F,]2 | [G,,,G,,]2 [D,G,]2 z2 |] %32

